icons/svg/glass-flute.svg

﻿<?xml version="1.0" encoding="utf-8"?>
<!DOCTYPE svg PUBLIC "-//W3C//DTD SVG 1.1//EN" "http://www.w3.org/Graphics/SVG/1.1/DTD/svg11.dtd">
<svg xmlns="http://www.w3.org/2000/svg" xmlns:xlink="http://www.w3.org/1999/xlink" version="1.1" baseProfile="full" width="24" height="24" viewBox="0 0 24.00 24.00" enable-background="new 0 0 24.00 24.00" xml:space="preserve">
	<path fill="#000000" fill-opacity="1" stroke-width="0.2" stroke-linejoin="round" d="M 8,1.99998L 16,1.99998C 15.6667,4.99999 15.3333,7.99999 14.75,9.83332C 14.1667,11.6667 13.3333,12.3333 12.9167,14.0833C 12.5,15.8333 12.5,18.6666 13.0833,20C 13.6667,21.3333 14.8333,21.1667 15.4167,21.25C 16,21.3333 16,21.6667 16,22L 8,22C 8,21.6667 8,21.3333 8.58333,21.25C 9.16667,21.1667 10.3333,21.3333 10.9167,20C 11.5,18.6666 11.5,15.8333 11.0833,14.0833C 10.6667,12.3333 9.83333,11.6667 9.25,9.83332C 8.66667,7.99999 8.33333,4.99999 8,1.99998 Z M 10,4C 10.0738,5.03382 10.1477,6.06765 10.236,7L 13.764,7C 13.8523,6.06765 13.9262,5.03382 14,3.99999L 10,4 Z "/>
</svg>

<svg xmlns="http://www.w3.org/2000/svg" version="1.1" baseProfile="full" width="24" height="24" viewBox="0 0 24.00 24.00" xml:space="preserve"><path fill="#000" fill-opacity="1" stroke-width=".2" stroke-linejoin="round" d="M8 2h8c-.333 3-.667 6-1.25 7.833-.583 1.834-1.417 2.5-1.833 4.25-.417 1.75-.417 4.584.166 5.917.584 1.333 1.75 1.167 2.334 1.25.583.083.583.417.583.75H8c0-.333 0-.667.583-.75.584-.083 1.75.083 2.334-1.25.583-1.333.583-4.167.166-5.917-.416-1.75-1.25-2.416-1.833-4.25C8.667 8 8.333 5 8 2zm2 2c.074 1.034.148 2.068.236 3h3.528c.088-.932.162-1.966.236-3h-4z"/></svg>
